X:1     %Music
T:Johnny Todd
B:Singing Together, Autumn 1968, BBC Publications
F:http://www.folkinfo.org/songs
M:2/4     %Meter
L:1/16     %
K:G
G2B2 d2d2 |e2e2 d2B2 |G2B2 d3d |c2B2 A4 |
w:John-ny Todd he took a no-tion For to sail the o-cean wide, 
G2B2 d4 |[M:3/4][L:1/8] G3/2B/ AG FD |
w:And he left his true love be-hind him, 
M:2/4     %Meter
L:1/16     %
G2B2 d3A |ccB2 G4 |]
w:Weep-ing by the Liv-er-pool tide. 